X:1
T:The Phoenix  "1998.3"
M:C|
L:1/8
Q:80
C:Don Bradford
S:Hornpipe
K:HP
|: {g}A{Gdc}d{g}d/2e/2{g}f/2A/2 | \
{gBeBG}B{g}B/2A/2{g}G/2A/2{g}B/2{d}G/2 | \
{gef}e{A}e/2f/2{a}g/2f/2{g}e/2d/2 |
{g}c/2{d}A/2{g}c/2e/2{a}g/2e/2{g}c/2e/2 | \
{g}A{Gdc}d{g}d/2e/2{g}f/2A/2 | \
{gBeBG}B{g}B/2A/2{g}G/2A/2{g}B/2{d}G/2 |
{g}A/2{d}c/2{g}B/2{d}A/2{g}B/2{d}c/2{g}e/2f/2 | \
{a}g/2e/2{g}c/2{d}A/2{Gdc}d2 :| \
{g}A{ag}aA/2f/2{g}f/2{e}f/2 |
{g}G/2d/2{G}d/2G/2{g}e/2d/2{g}B/2{d}G/2 | \
{gcd}c{ag}a{AGAG}A{g}e/2d/2 | \
{g}c/2{d}A/2{g}c/2e/2{a}g/2e/2{g}c/2e/2|1
{g}A{ag}aA/2f/2{g}f/2{e}f/2 | \
{g}G/2d/2{G}d/2G/2{g}e/2d/2{g}B/2{d}G/2 | \
{g}A/2{d}c/2{g}B/2{d}A/2{g}B/2{d}c/2{g}e/2f/2 |
{a}g/2e/2{g}c/2{d}A/2{Gdc}d2:|2
{g}A{Gdc}d{g}d/2e/2{g}f/2A/2 | \
{gBeBG}B{g}B/2A/2{g}G/2A/2{g}B/2{d}G/2 |
{g}A/2{d}c/2{g}B/2{d}A/2{g}B/2{d}c/2{g}e/2f/2 | \
{a}g/2e/2{g}c/2{d}A/2{Gdc}d2|]
